workspaces/client/public/images/svg/dollar.svg

<svg width="33" height="33" viewBox="0 0 33 33" fill="none" xmlns="http://www.w3.org/2000/svg">
<path fill-rule="evenodd" clip-rule="evenodd" d="M15.0743 8.7749C15.9531 8.7749 16.8285 8.7749 17.7073 8.7749C17.6556 9.36933 17.6007 9.96699 17.5522 10.5614C18.5763 10.6357 19.5746 10.9652 20.4727 11.4531C20.085 12.4287 19.6941 13.4043 19.3032 14.38C18.5472 13.7371 17.5522 13.3817 16.5604 13.3947C16.3116 13.4011 16.0532 13.4496 15.8464 13.5917C15.7108 13.6854 15.6106 13.8308 15.5815 13.9923C15.5589 14.1215 15.5654 14.2669 15.6365 14.3832C15.7172 14.5124 15.8594 14.59 16.0015 14.6384C16.2923 14.7418 16.6056 14.7483 16.9093 14.7806C17.6233 14.8678 18.3405 14.9906 19.0157 15.2458C19.539 15.4461 20.0398 15.7465 20.3984 16.1859C20.7376 16.5897 20.9346 17.1002 21.0089 17.6235C21.0962 18.2276 21.0703 18.8544 20.8829 19.4423C20.7376 19.914 20.4888 20.3534 20.1658 20.7249C19.497 21.5002 18.5149 21.9654 17.507 22.085C17.5393 22.7214 17.578 23.3546 17.6136 23.991C16.7801 23.991 15.9498 23.991 15.1196 23.991C15.1519 23.3611 15.1939 22.7311 15.2229 22.1011C14.5542 22.0785 13.8919 21.9299 13.2684 21.6941C12.6643 21.4647 12.0893 21.161 11.553 20.8056C11.9471 19.7912 12.3412 18.7768 12.7386 17.7592C13.1877 18.1372 13.6658 18.4893 14.1891 18.7574C14.7513 19.045 15.3748 19.2291 16.008 19.2356C16.3084 19.2388 16.6186 19.2227 16.9028 19.1193C17.0773 19.0547 17.2485 18.9416 17.3261 18.7639C17.4068 18.5765 17.4004 18.3407 17.2776 18.1727C17.1904 18.0596 17.0676 17.9821 16.9384 17.9272C16.7639 17.8561 16.583 17.8173 16.3989 17.7883C15.7204 17.6784 15.0388 17.588 14.383 17.3748C13.8564 17.2035 13.3427 16.9645 12.9228 16.5962C12.6578 16.3668 12.4382 16.0857 12.2831 15.7691C12.0505 15.2975 11.9633 14.7644 11.9697 14.2411C11.9697 13.6563 12.0893 13.0619 12.38 12.5482C12.632 12.0895 13.0164 11.7147 13.4493 11.4272C13.9727 11.0815 14.5574 10.8457 15.1519 10.6551C15.126 10.0284 15.1002 9.40164 15.0743 8.7749Z" fill="white"/>
</svg>

<svg xmlns="http://www.w3.org/2000/svg" width="33" height="33" fill="none"><path fill="#fff" fill-rule="evenodd" d="M15.074 8.775h2.633c-.051.594-.106 1.192-.155 1.786 1.024.075 2.023.404 2.92.892q-.582 1.463-1.169 2.927a4.2 4.2 0 0 0-2.743-.985c-.248.006-.507.055-.714.197a.63.63 0 0 0-.264.4.57.57 0 0 0 .054.391c.081.13.223.207.366.255.29.104.604.11.907.143.714.087 1.431.21 2.107.465.523.2 1.024.5 1.382.94.34.404.537.914.61 1.438.088.604.062 1.23-.125 1.818a3.6 3.6 0 0 1-.717 1.283c-.669.775-1.651 1.24-2.659 1.36.032.636.071 1.27.107 1.906H15.12c.032-.63.074-1.26.103-1.89a6.1 6.1 0 0 1-1.955-.407 8.7 8.7 0 0 1-1.715-.888q.59-1.522 1.186-3.047c.449.378.927.73 1.45.998.562.288 1.186.472 1.819.479.3.003.61-.013.895-.117.174-.064.346-.177.423-.355a.61.61 0 0 0-.048-.591.8.8 0 0 0-.34-.246 2.4 2.4 0 0 0-.54-.139c-.678-.11-1.36-.2-2.015-.413-.527-.172-1.04-.41-1.46-.779a2.6 2.6 0 0 1-.64-.827c-.232-.472-.32-1.005-.313-1.528 0-.585.12-1.18.41-1.693.252-.459.636-.833 1.07-1.12.523-.347 1.107-.582 1.702-.773z" clip-rule="evenodd"/></svg>
